X: 3101
T: Bear's, The
R: polka
M: 2/4
K: Eminor
L:1/16
|:B2e2 e2f2|efed B2ef|g2e2 f2d2|efed B2A2|
B2e2 e2f2|efed B2ef|g2e2 f2d2|1 e4 e2d2:|2 e6 ga||
b4 z2e2|e4 e2d2|B2e2 e2f2|efed B2ga|b4 z2e2|e4 e2d2|B2e2 e2d2|e6 ga|
b2g2 a2f2|gagf e2d2|B2e2 e2f2|efed B2ga|b4 z2a2|g2f2 e2d2|B2e2 e2d2|e8|

